assets/images/xuqiu.svg

<svg id="图层_1" xmlns="http://www.w3.org/2000/svg" viewBox="0 0 100 100"><style>.st0{fill:#fff}</style><path id="XMLID_7_" class="st0" d="M50 21.4c-16 0-29 13-29 29s13 29 29 29 29-13 29-29c0-16.1-13-29-29-29zm0 56.1c-15 0-27.1-12.1-27.1-27.1 0-15 12.1-27.1 27.1-27.1s27.1 12.1 27.1 27.1C77.1 65.3 65 77.5 50 77.5z"/><path id="XMLID_2_" class="st0" d="M50 35.5c-8 0-14.5 6.5-14.5 14.5S42 64.6 50 64.6s14.5-6.5 14.5-14.5S58 35.5 50 35.5zm4.3 9.7c1.1 0 2.1.9 2.1 2.1s-.9 2.1-2.1 2.1-2.1-.9-2.1-2.1 1-2.1 2.1-2.1zm-8.9 0c1.1 0 2.1.9 2.1 2.1s-.9 2.1-2.1 2.1-2.1-.9-2.1-2.1.9-2.1 2.1-2.1zm13.2 8.1s-2.5 6.2-8.4 6.3c-5.9-.1-8.4-6.3-8.4-6.3s-.2-.7.4-1c.9-.5 1.3.6 1.3.6s2.6 5.1 6.6 5.1c4.1 0 6.7-5.1 6.7-5.1s.4-1 1.3-.6c.7.3.5 1 .5 1z"/></svg>

<?xml version="1.0" encoding="utf-8"?>
<!-- Generator: Adobe Illustrator 19.0.0, SVG Export Plug-In . SVG Version: 6.00 Build 0)  -->
<svg version="1.1" id="图层_1" xmlns="http://www.w3.org/2000/svg" xmlns:xlink="http://www.w3.org/1999/xlink" x="0px" y="0px"
	 viewBox="0 0 100 100" style="enable-background:new 0 0 100 100;" xml:space="preserve">
<style type="text/css">
	.st0{fill:#FFFFFF;}
</style>
<path id="XMLID_7_" class="st0" d="M50,21.4c-16,0-29,13-29,29c0,16,13,29,29,29s29-13,29-29C79,34.3,66,21.4,50,21.4z M50,77.5
	c-15,0-27.1-12.1-27.1-27.1c0-15,12.1-27.1,27.1-27.1s27.1,12.1,27.1,27.1C77.1,65.3,65,77.5,50,77.5z"/>
<path id="XMLID_2_" class="st0" d="M50,35.5c-8,0-14.5,6.5-14.5,14.5S42,64.6,50,64.6c8,0,14.5-6.5,14.5-14.5S58,35.5,50,35.5z
	 M54.3,45.2c1.1,0,2.1,0.9,2.1,2.1s-0.9,2.1-2.1,2.1s-2.1-0.9-2.1-2.1S53.2,45.2,54.3,45.2z M45.4,45.2c1.1,0,2.1,0.9,2.1,2.1
	s-0.9,2.1-2.1,2.1s-2.1-0.9-2.1-2.1S44.2,45.2,45.4,45.2z M58.6,53.3c0,0-2.5,6.2-8.4,6.3h0c-5.9-0.1-8.4-6.3-8.4-6.3
	s-0.2-0.7,0.4-1c0.9-0.5,1.3,0.6,1.3,0.6s2.6,5.1,6.6,5.1h0c4.1,0,6.7-5.1,6.7-5.1s0.4-1,1.3-0.6C58.8,52.6,58.6,53.3,58.6,53.3z"/>
</svg>
